X:1
T:Schroeder, 76.76.76.76.77
T:Hermann Rudolph Schroeder, 1887
T:Schroeder, 76.76.76.76.77
T:Public Domain
C:Hermann Rudolph Schroeder, 1887
Z:Public Domain
%%score ( 1 2 ) ( 3 4 )
L:1/8
M:4/4
K:G
V:1 treble 
V:2 treble 
V:3 bass 
V:4 bass 
V:1
 x8 |: [DG]2 | [EG]2 DC [B,G]2 [A,D]2 | [DG]4 [DA]2 [DB]2 | [Ec]2 [DB]2 dc z G x | [FA]6 [GB]2 | %6
 [GB]2 [EA]2 cB z F x | [DG]4 [DF]2 [EA]2 | [DA]2 [DG]2 GF z ^C x | D6 :|[M:3/4] [B,G]4 [FA]2 | %11
 [EG]4 [Ec]2 | c2 B2 [EA]2 | [^DB]6 | [EB]4 [Ec]2 | [Fd]4 [EG]2 | [Ec]2 B2 z C x | [B,G]6 |] %18
V:2
 x8 |: x2 | x2 F2 x4 | x8 | x4 D3 B2 | x8 | x4 E3 A2 | x8 | x4 D3 E2 | D6 :|[M:3/4] x6 | x6 | %12
 E4 x2 | x6 | x6 | x6 | x2 D3 A2 | x6 |] %18
V:3
 x8 |: [G,B,]2 | CB, [D,A,]2 [G,,G,]2 [C,F,]2 | C,2 B,,G,, [D,F,]2 G,2 | %4
 [E,G,][F,A,] [G,B,]2 [F,A,]2 [G,D]2 x | [D,D]6 [G,D]2 | [E,E]2 [C,E]2 [A,,C][B,,B,]C,D, x | %7
 C2 B,2 [D,A,]2 [^C,A,]2 | [D,F,]2 [B,,G,]2 E,2 z A, x | [D,F,]6 :|[M:3/4] E,2 B,2 [^D,B,]2 | %11
 E,2 D,2 C,B,, | [A,,A,]2 [E,G,][D,F,] [C,E,]2 | [B,,F,]6 | [E,G,]4 A,G, | [D,F,]4 [E,G,]2 | %16
 C,2 D,2 [D,,F,]2 x | [G,,G,]6 |] %18
V:4
 x8 |: x2 | C,2 x6 | G,4 G,2 x2 | x9 | x8 | x6 C2 x | G,,4 x4 | x4 G,3 A,,2 | x6 :|[M:3/4] E,4 x2 | %11
 B,4 A,2 | x6 | x6 | x4 A,,2 | x6 | G,4 x3 | x6 |] %18

